public/sgho-banner.svg

<svg width="135" height="135" viewBox="0 0 135 135" fill="none" xmlns="http://www.w3.org/2000/svg">
<g filter="url(#filter0_d_543_5322)">
<path d="M67.5 3C100.913 3 128 30.0868 128 63.5C128 96.9132 100.913 124 67.5 124C34.0868 124 7 96.9132 7 63.5C7 30.0868 34.0868 3 67.5 3Z" fill="url(#paint0_radial_543_5322)" stroke="white" style="stroke:white;stroke-opacity:1;" stroke-width="6"/>
<path d="M46.3553 55.9938C46.3553 61.165 50.5452 65.3548 55.7163 65.3548C60.8875 65.3548 65.0773 61.165 65.0773 55.9938C65.0773 50.8226 60.8875 46.6328 55.7163 46.6328C50.5452 46.6328 46.3553 50.8226 46.3553 55.9938Z" fill="white" style="fill:white;fill-opacity:1;"/>
<path d="M69.9495 55.9938C69.9495 61.165 74.1393 65.3548 79.3105 65.3548C84.4816 65.3548 88.6715 61.165 88.6715 55.9938C88.6715 50.8226 84.4816 46.6328 79.3105 46.6328C74.1393 46.6328 69.9495 50.8226 69.9495 55.9938Z" fill="white" style="fill:white;fill-opacity:1;"/>
<path d="M111.863 100.085V68.1805H99.8265C97.3923 84.2728 84.1175 95.9952 67.5 95.9952C49.1383 95.9952 34.4682 81.6853 34.4682 62.9748C34.4682 44.2643 49.1383 29.6862 67.5038 29.6862C83.5118 29.6862 96.7062 40.7683 99.8342 56.002H111.871C108.578 34.3437 89.6797 17.7568 67.5 17.7568C42.9935 17.7568 23.1292 38.0045 23.1292 62.971C23.1292 87.9375 42.9935 108.185 67.5 108.185C82.9215 108.185 93.674 101.044 100.271 89.7967C100.428 89.8427 100.589 89.8772 100.739 89.9232V110.424C104.89 107.48 108.632 103.999 111.863 100.081V100.085Z" fill="white" style="fill:white;fill-opacity:1;"/>
</g>
<defs>
<filter id="filter0_d_543_5322" x="0" y="0" width="135" height="135" filterUnits="userSpaceOnUse" color-interpolation-filters="sRGB">
<feFlood flood-opacity="0" result="BackgroundImageFix"/>
<feColorMatrix in="SourceAlpha" type="matrix" values="0 0 0 0 0 0 0 0 0 0 0 0 0 0 0 0 0 0 127 0" result="hardAlpha"/>
<feOffset dy="4"/>
<feGaussianBlur stdDeviation="2"/>
<feComposite in2="hardAlpha" operator="out"/>
<feColorMatrix type="matrix" values="0 0 0 0 0 0 0 0 0 0 0 0 0 0 0 0 0 0 0.04 0"/>
<feBlend mode="normal" in2="BackgroundImageFix" result="effect1_dropShadow_543_5322"/>
<feBlend mode="normal" in="SourceGraphic" in2="effect1_dropShadow_543_5322" result="shape"/>
</filter>
<radialGradient id="paint0_radial_543_5322" cx="0" cy="0" r="1" gradientUnits="userSpaceOnUse" gradientTransform="translate(67.5 6) rotate(90) scale(115)">
<stop stop-color="#28D358" style="stop-color:#28D358;stop-color:color(display-p3 0.1569 0.8275 0.3451);stop-opacity:1;"/>
<stop offset="0.3125" stop-color="#34C95F" style="stop-color:#34C95F;stop-color:color(display-p3 0.2039 0.7882 0.3725);stop-opacity:1;"/>
<stop offset="0.639423" stop-color="#5AB783" style="stop-color:#5AB783;stop-color:color(display-p3 0.3529 0.7176 0.5137);stop-opacity:1;"/>
<stop offset="0.817308" stop-color="#94A8D3" style="stop-color:#94A8D3;stop-color:color(display-p3 0.5804 0.6588 0.8275);stop-opacity:1;"/>
<stop offset="1" stop-color="#A3A2FF" style="stop-color:#A3A2FF;stop-color:color(display-p3 0.6384 0.6344 1.0000);stop-opacity:1;"/>
</radialGradient>
</defs>
</svg>

<svg width="135" height="135" viewBox="0 0 135 135" fill="none" xmlns="http://www.w3.org/2000/svg"><g filter="url(#a)"><path d="M67.5 3C100.913 3 128 30.087 128 63.5S100.913 124 67.5 124 7 96.913 7 63.5 34.087 3 67.5 3Z" fill="url(#b)" stroke="#fff" style="stroke:#fff;stroke-opacity:1" stroke-width="6"/><path d="M46.355 55.994a9.36 9.36 0 0 0 9.361 9.36 9.36 9.36 0 0 0 9.361-9.36 9.36 9.36 0 0 0-9.36-9.361 9.36 9.36 0 0 0-9.362 9.36Zm23.595 0a9.36 9.36 0 0 0 9.36 9.36 9.36 9.36 0 0 0 9.361-9.36 9.36 9.36 0 0 0-9.36-9.361 9.36 9.36 0 0 0-9.362 9.36Z" fill="#fff" style="fill:#fff;fill-opacity:1"/><path d="M111.863 100.085V68.181H99.826C97.392 84.272 84.118 95.994 67.5 95.994c-18.362 0-33.032-14.31-33.032-33.02s14.67-33.289 33.036-33.289c16.008 0 29.202 11.082 32.33 26.316h12.037C108.578 34.344 89.68 17.757 67.5 17.757c-24.507 0-44.37 20.247-44.37 45.214s19.863 45.214 44.37 45.214c15.421 0 26.174-7.141 32.771-18.388.157.046.318.08.468.126v20.501a57.655 57.655 0 0 0 11.124-10.343v.004Z" fill="#fff" style="fill:#fff;fill-opacity:1"/></g><defs><radialGradient id="b" cx="0" cy="0" r="1" gradientUnits="userSpaceOnUse" gradientTransform="matrix(0 115 -115 0 67.5 6)"><stop stop-color="#28D358" style="stop-color:color(display-p3 .1569 .8275 .3451);stop-opacity:1"/><stop offset=".313" stop-color="#34C95F" style="stop-color:color(display-p3 .2039 .7882 .3725);stop-opacity:1"/><stop offset=".639" stop-color="#5AB783" style="stop-color:color(display-p3 .3529 .7176 .5137);stop-opacity:1"/><stop offset=".817" stop-color="#94A8D3" style="stop-color:color(display-p3 .5804 .6588 .8275);stop-opacity:1"/><stop offset="1" stop-color="#A3A2FF" style="stop-color:color(display-p3 .6384 .6344 1);stop-opacity:1"/></radialGradient><filter id="a" x="0" y="0" width="135" height="135" filterUnits="userSpaceOnUse" color-interpolation-filters="sRGB"><feFlood flood-opacity="0" result="BackgroundImageFix"/><feColorMatrix in="SourceAlpha" values="0 0 0 0 0 0 0 0 0 0 0 0 0 0 0 0 0 0 127 0" result="hardAlpha"/><feOffset dy="4"/><feGaussianBlur stdDeviation="2"/><feComposite in2="hardAlpha" operator="out"/><feColorMatrix values="0 0 0 0 0 0 0 0 0 0 0 0 0 0 0 0 0 0 0.04 0"/><feBlend in2="BackgroundImageFix" result="effect1_dropShadow_543_5322"/><feBlend in="SourceGraphic" in2="effect1_dropShadow_543_5322" result="shape"/></filter></defs></svg>
